_includes/icons/color-paint.svg

<svg fill="#666" height="50" viewBox="0 0 48 48" width="50" xmlns="http://www.w3.org/2000/svg"><path d="m6 42c4-2 6.609375-7.152344 7.871094-11.335937 1.445312-4.796875 2.9375-9.753907 10.386719-10.15625.179687-.007813.359375.042968.507812.148437l6.433594 4.539063c.214844.148437.339844.394531.339844.65625 0 13.730468-8.78125 16.148437-25.539063 16.148437z" fill="#ffc107"/><path d="m23.097656 20.507813c-.03125.066406-.074218.132812-.085937.207031-.207031 1.101562.199219 2.304687 1.164062 3.472656 1.582032 1.902344 4.28125 3.097656 6.304688 3.097656.230469 0 .449219-.019531.65625-.058593.210937-.039063.386719-.167969.507812-.347657l10.355469-20.878906h-9.988281z" fill="#e91e63"/></svg>

<svg xmlns="http://www.w3.org/2000/svg" viewBox="0 0 48 48" width="50" height="50" fill="#666"><path d="M 6 42 C 10 40 12.609375 34.847656 13.871094 30.664063 C 15.316406 25.867188 16.808594 20.910156 24.257813 20.507813 C 24.4375 20.5 24.617188 20.550781 24.765625 20.65625 L 31.199219 25.195313 C 31.414063 25.34375 31.539063 25.589844 31.539063 25.851563 C 31.539063 39.582031 22.757813 42 6 42 Z" fill="#ffc107"/><path d="M 23.097656 20.507813 C 23.066406 20.574219 23.023438 20.640625 23.011719 20.714844 C 22.804688 21.816406 23.210938 23.019531 24.175781 24.1875 C 25.757813 26.089844 28.457031 27.285156 30.480469 27.285156 C 30.710938 27.285156 30.929688 27.265625 31.136719 27.226563 C 31.347656 27.1875 31.523438 27.058594 31.644531 26.878906 L 42 6 L 32.011719 6 Z" fill="#e91e63"/></svg>
